Icons/Renumber.svg

<svg viewBox="0 0 16 16" xmlns="http://www.w3.org/2000/svg">
  <path d="m0 0v16h16v-16zm1 4h14v10h-14z" fill="#4d82b8"/>
  <path d="m1 3h14v12h-14z" fill="#fff"/>
  <g fill="#7ba6ff">
    <path d="m3.3206135 12.297909c-.2667351.07471-.4034729.370052-.3156292.632755.087844.262702.3660193.390338.6327544.315629l8.9575433-2.508878c.266735-.07471.403472-.370052.315628-.632754-.08784-.2627026-.366019-.3903383-.632754-.3156297z"/>
    <path d="m3.2395569 8.218516c-.2667351.0747087-.4034729.3700521-.3156292.6327544.0878436.2627023.3660193.390338.6327544.3156293l8.9575439-2.508878c.266735-.0747086.403472-.370052.315628-.6327543-.087843-.2627023-.366019-.390338-.632754-.3156294z"/>
    <path d="m3.8360019 5.169847c-.211501-.1788752-.5164453-.1816955-.7068378.0195-.1903926.2011956-.1920008.5279627.0195.7068378l9.3626838 7.9184091c.211502.178875.516445.181696.706838-.0195.190392-.201195.192-.527963-.0195-.706837z"/>
  </g>
  <g fill="#808080">
    <path d="m2.5 13c-.277 0-.5.223-.5.5s.223.5.5.5h2c.277 0 .5-.223.5-.5s-.223-.5-.5-.5z"/>
    <path d="m11.5 5c-.277 0-.5.223-.5.5s.223.5.5.5h2c.277 0 .5-.223.5-.5s-.223-.5-.5-.5z"/>
    <path d="m2.5 9c-.277 0-.5.223-.5.5s.223.5.5.5h2c.277 0 .5-.223.5-.5s-.223-.5-.5-.5z"/>
    <path d="m11.5 8.9999997c-.277 0-.5.223-.5.5s.223.5000003.5.5000003h1.999999c.277 0 .5-.2230003.5-.5000003s-.223-.5-.5-.5z"/>
    <path d="m11.5 13c-.277 0-.5.223-.5.5s.223.5.5.5h2c.277 0 .5-.223.5-.5s-.223-.5-.5-.5z"/>
    <path d="m2.5 5c-.277 0-.5.223-.5.5s.223.5.5.5h2c.277 0 .5-.223.5-.5s-.223-.5-.5-.5z"/>
  </g>
</svg>

<?xml version="1.0" encoding="UTF-8" standalone="no"?>
<svg
   xmlns:dc="http://purl.org/dc/elements/1.1/"
   xmlns:cc="http://creativecommons.org/ns#"
   xmlns:rdf="http://www.w3.org/1999/02/22-rdf-syntax-ns#"
   xmlns:svg="http://www.w3.org/2000/svg"
   xmlns="http://www.w3.org/2000/svg"
   xmlns:sodipodi="http://sodipodi.sourceforge.net/DTD/sodipodi-0.dtd"
   xmlns:inkscape="http://www.inkscape.org/namespaces/inkscape"
   viewBox="0 0 16 16"
   version="1.1"
   id="svg8"
   sodipodi:docname="Renumber.svg"
   inkscape:export-filename="C:\Users\Kalama\Documents\GitHub\CodeLab-bb\Icons\Renumber.32.png"
   inkscape:export-xdpi="192"
   inkscape:export-ydpi="192"
   inkscape:version="0.92.4 (5da689c313, 2019-01-14)">
  <metadata
     id="metadata14">
    <rdf:RDF>
      <cc:Work
         rdf:about="">
        <dc:format>image/svg+xml</dc:format>
        <dc:type
           rdf:resource="http://purl.org/dc/dcmitype/StillImage" />
      </cc:Work>
    </rdf:RDF>
  </metadata>
  <defs
     id="defs12" />
  <sodipodi:namedview
     pagecolor="#ffffff"
     bordercolor="#666666"
     borderopacity="1"
     objecttolerance="10"
     gridtolerance="10"
     guidetolerance="10"
     inkscape:pageopacity="0"
     inkscape:pageshadow="2"
     inkscape:window-width="1920"
     inkscape:window-height="1018"
     id="namedview10"
     showgrid="false"
     inkscape:zoom="10.429825"
     inkscape:cx="5.9721297"
     inkscape:cy="8.8837219"
     inkscape:window-x="-8"
     inkscape:window-y="-8"
     inkscape:window-maximized="1"
     inkscape:current-layer="svg8" />
  <path
     d="M 0,0 V 16 H 16 V 0 Z M 1,4 H 15 V 14 H 1 Z"
     id="path2"
     inkscape:connector-curvature="0"
     style="fill:#4d82b8"
     sodipodi:nodetypes="cccccccccc" />
  <path
     d="M 1,3 H 15 V 15 H 1 Z"
     id="path4"
     inkscape:connector-curvature="0"
     style="fill:#ffffff"
     sodipodi:nodetypes="ccccc" />
  <path
     d="m 3.3206135,12.297909 c -0.2667351,0.07471 -0.4034729,0.370052 -0.3156292,0.632755 0.087844,0.262702 0.3660193,0.390338 0.6327544,0.315629 l 8.9575433,-2.508878 c 0.266735,-0.07471 0.403472,-0.370052 0.315628,-0.632754 C 12.82307,9.8419584 12.544891,9.7143227 12.278156,9.7890313 Z"
     id="path6-7-57-6"
     inkscape:connector-curvature="0"
     style="fill:#7ba6ff;fill-opacity:1"
     sodipodi:nodetypes="sssssss" />
  <path
     d="M 3.2395569,8.218516 C 2.9728218,8.2932247 2.836084,8.5885681 2.9239277,8.8512704 3.0117713,9.1139727 3.289947,9.2416084 3.5566821,9.1668997 L 12.514226,6.6580217 C 12.780961,6.5833131 12.917698,6.2879697 12.829854,6.0252674 12.742011,5.7625651 12.463835,5.6349294 12.1971,5.709638 Z"
     id="path6-7-57"
     inkscape:connector-curvature="0"
     style="fill:#7ba6ff;fill-opacity:1"
     sodipodi:nodetypes="sssssss" />
  <path
     d="m 3.8360019,5.169847 c -0.211501,-0.1788752 -0.5164453,-0.1816955 -0.7068378,0.0195 -0.1903926,0.2011956 -0.1920008,0.5279627 0.0195,0.7068378 l 9.3626838,7.9184091 c 0.211502,0.178875 0.516445,0.181696 0.706838,-0.0195 0.190392,-0.201195 0.192,-0.527963 -0.0195,-0.706837 z"
     id="path6-7-4"
     inkscape:connector-curvature="0"
     style="fill:#7ba6ff;fill-opacity:1"
     sodipodi:nodetypes="sssssss" />
  <path
     d="M 2.5,13 C 2.223,13 2,13.223 2,13.5 2,13.777 2.223,14 2.5,14 h 2 C 4.777,14 5,13.777 5,13.5 5,13.223 4.777,13 4.5,13 Z"
     id="path6-7"
     inkscape:connector-curvature="0"
     style="fill:#808080"
     sodipodi:nodetypes="sssssss" />
  <path
     d="M 11.5,5 C 11.223,5 11,5.223 11,5.5 11,5.777 11.223,6 11.5,6 h 2 C 13.777,6 14,5.777 14,5.5 14,5.223 13.777,5 13.5,5 Z"
     id="path6-7-5"
     inkscape:connector-curvature="0"
     style="fill:#808080"
     sodipodi:nodetypes="sssssss" />
  <path
     d="M 2.5,9 C 2.223,9 2,9.223 2,9.5 2,9.777 2.223,10 2.5,10 h 2 C 4.777,10 5,9.777 5,9.5 5,9.223 4.777,9 4.5,9 Z"
     id="path6-7-9"
     inkscape:connector-curvature="0"
     style="fill:#808080"
     sodipodi:nodetypes="sssssss" />
  <path
     d="m 11.5,8.9999997 c -0.277,0 -0.5,0.223 -0.5,0.5 C 11,9.7769997 11.223,10 11.5,10 h 1.999999 c 0.277,0 0.5,-0.2230003 0.5,-0.5000003 0,-0.277 -0.223,-0.5 -0.5,-0.5 z"
     id="path6-7-7"
     inkscape:connector-curvature="0"
     style="fill:#808080"
     sodipodi:nodetypes="sssssss" />
  <path
     d="m 11.5,13 c -0.277,0 -0.5,0.223 -0.5,0.5 0,0.277 0.223,0.5 0.5,0.5 h 2 C 13.777,14 14,13.777 14,13.5 14,13.223 13.777,13 13.5,13 Z"
     id="path6-7-3"
     inkscape:connector-curvature="0"
     style="fill:#808080"
     sodipodi:nodetypes="sssssss" />
  <path
     d="M 2.5,5 C 2.223,5 2,5.223 2,5.5 2,5.777 2.223,6 2.5,6 h 2 C 4.777,6 5,5.777 5,5.5 5,5.223 4.777,5 4.5,5 Z"
     id="path6-7-0"
     inkscape:connector-curvature="0"
     style="fill:#808080"
     sodipodi:nodetypes="sssssss" />
</svg>
